src/status/22/strawberry-panel-grey.svg

<svg width="22" height="22" version="1.1" viewBox="0 0 22 22" xmlns="http://www.w3.org/2000/svg">
 <g id="surface1">
  <path transform="matrix(.14519 .083827 -.083827 .14519 8.926 -1.318)" d="m9.688274 34.397288c4.151895-2.827611 8.18714-3.946705 12.24363-4.190219-3.625978-3.018339-6.330236-7.375975-7.771423-13.646653-0.0233-0.040356-0.03495-0.060534-0.026422-0.092362-0.197442-0.854563 0.336325-1.700828 1.190888-1.89827 3.149692-0.742332 6.458754-0.742642 9.860409-0.069993 1.859968 0.378966 3.752602 0.954306 5.67478 1.674015-0.770579-1.70745-1.260949-3.44216-1.450931-5.21578-0.314631-3.154489 0.3185-6.344997 2.217676-9.486241 0.29559-0.46661 0.788393-0.77804 1.372113-0.792203 3.121215 5.27e-4 5.925445 1.502385 8.3667 3.913326 1.938855 1.86697 3.643493 4.353447 5.132416 7.072087 1.100579-2.707071 2.555229-5.080479 4.309658-6.981262 2.413225-2.577095 5.422887-4.260947 9.010483-4.6642108 0.681488-0.1244202 1.379423 0.1990378 1.711869 0.8680378 1.341431 2.696178 1.777132 5.780767 1.531345 8.989777-0.15533 2.107511-0.587748 4.294289-1.271669 6.464849 1.3613-0.624535 2.80415-1.107823 4.351851-1.409507 3.031745-0.620426 6.473526-0.670458 10.331587-0.046084l0.063656 0.017056c0.864767 0.146423 1.46661 0.955832 1.340365 1.808949-0.880595 6.023823-3.404226 10.413447-6.985497 13.530405 3.29056 0.387034 6.725718 1.443906 10.640204 3.703775 1.492194 0.860347 2.846263 1.854252 4.038907 2.941356 1.215944 1.127461 2.282113 2.368301 3.146501 3.725641 3.672659 5.708732 3.930648 13.658004 2.415016 21.797258-2.006907 10.736677-7.138761 21.932353-11.338392 28.312002-3.447864 5.165381-7.696001 10.389241-12.972613 15.695719-5.256435 5.294829-11.48081 10.637324-18.869503 16.060154-0.740346 0.535065-1.743238 0.522198-2.462189 0.022543-7.647599-5.32397-14.475586-10.905918-20.359769-16.763736-5.916011-5.866346-10.879691-12.040391-14.795555-18.496551-4.786495-7.917513-10.040979-20.326907-10.319456-31.573592-0.2139022-8.4321 2.3117028-16.266628 9.6733648-21.270286zm5.398106 21.931343c1.997175-2.552119 2.70691-4.118781 2.706451-5.517545-4.59e-4 -1.398763-0.995282-2.842222-2.717734-2.843209-1.722451-9.87e-4 -2.525386 1.40425-2.524927 2.803014s0.569027 2.523332 2.53621 5.55774zm39.170035 49.623079c2.008825-2.531941 2.70691-4.118781 2.706451-5.517545-4.59e-4 -1.398763-0.975104-2.853872-2.697555-2.854859-1.74263 0.010663-2.545565 1.4159-2.545106 2.814664s0.600856 2.53186 2.53621 5.55774zm-15.2431-0.911722c2.008825-2.531941 2.70691-4.118781 2.706451-5.517545s-0.983632-2.822044-2.706083-2.823031c-1.722452-9.87e-4 -2.525387 1.40425-2.524928 2.803014 0.020637 1.387113 0.589206 2.511682 2.52456 5.537562zm-7.77249-14.533881c2.008825-2.531941 2.70691-4.118782 2.706451-5.517545-4.6e-4 -1.398764-0.963454-2.833695-2.685906-2.834682-1.754279-0.009515-2.537037 1.384072-2.536577 2.782836 0.012109 1.418942 0.580677 2.543511 2.516032 5.569391zm30.908644-0.007818c2.008824-2.53194 2.706909-4.118781 2.70645-5.517545-4.59e-4 -1.398763-0.983632-2.822044-2.685905-2.834681-1.74263 0.010663-2.545565 1.4159-2.545106 2.814664 0.020637 1.387114 0.589206 2.511682 2.524561 5.537562zm-15.673314-1.470465c2.008824-2.531941 2.706909-4.118782 2.70645-5.517545-4.59e-4 -1.398764-0.983632-2.822045-2.706083-2.823032-1.722452-9.87e-4 -2.525387 1.404251-2.524928 2.803014 4.59e-4 1.398764 0.569028 2.523333 2.524561 5.537563zm24.199808-13.864401c2.008825-2.53194 2.70691-4.118781 2.706451-5.517544-4.6e-4 -1.398764-0.983632-2.822045-2.706084-2.823032-1.734101-0.021165-2.537037 1.384072-2.536577 2.782836 4.59e-4 1.398764 0.600855 2.531861 2.53621 5.55774zm-14.65169-1.145561c1.988646-2.520291 2.698381-4.086953 2.697922-5.485717-0.012109-1.418941-0.975104-2.853872-2.697555-2.854859-1.722452-9.87e-4 -2.525387 1.40425-2.524928 2.803014s0.569028 2.523332 2.524561 5.537562zm-17.484547 0.00574c1.988646-2.520291 2.686731-4.107132 2.686272-5.505895-4.59e-4 -1.398764-0.963454-2.833695-2.685905-2.834682-1.74263 0.010663-2.537037 1.384073-2.536578 2.782836 4.59e-4 1.398764 0.580678 2.543511 2.536211 5.557741zm-15.250561 0.007334c2.008825-2.53194 2.70691-4.118781 2.70645-5.517545-4.59e-4 -1.398763-0.963453-2.833694-2.685905-2.834681-1.742629 0.010663-2.525387 1.40425-2.545106 2.814664 4.6e-4 1.398764 0.589206 2.511682 2.524561 5.537562zm54.126037-17.717331c2.008825-2.531941 2.71856-4.098603 2.70645-5.517545-4.59e-4 -1.398764-0.983631-2.822044-2.706083-2.823031-1.722451-9.87e-4 -2.525387 1.40425-2.524928 2.803014 4.6e-4 1.398764 0.569028 2.523332 2.524561 5.537562zm-15.334395 0.001929c2.008825-2.531941 2.686731-4.107131 2.686272-5.505895 0.019719-1.410414-0.963453-2.833694-2.685905-2.834682-1.722451-9.87e-4 -2.525387 1.404251-2.524928 2.803015 4.6e-4 1.398763 0.569028 2.523332 2.524561 5.537562zm-14.82286 0.002537c2.008824-2.531941 2.718559-4.098603 2.70645-5.517545-4.59e-4 -1.398764-0.963453-2.833694-2.685905-2.834682-1.722452-9.87e-4 -2.525387 1.404251-2.545106 2.814665 0.020637 1.387113 0.589206 2.511682 2.524561 5.537562zm-17.192688-0.001343c2.008825-2.531941 2.70691-4.118781 2.706451-5.517545-4.59e-4 -1.398763-0.983632-2.822044-2.706083-2.823031-1.722452-9.87e-4 -2.525387 1.40425-2.524928 2.803014s0.569027 2.523332 2.52456 5.537562zm-1.921914-25.929285c2.174289 0.224393 4.386652 0.561326 6.630842 0.906787 3.941895 0.62978 8.031282 1.282022 12.308285 1.234045 4.068979-0.03549 7.79097-0.112782 11.198409-0.734884 2.50087-0.421536 4.831557-1.417426 7.232375-1.592866 0.343028-0.198051 0.686056-0.396102 1.037612-0.625981 3.829883-2.453363 6.726315-6.197288 7.898161-11.716658-2.859738-0.339826-5.39099-0.250505-7.648885 0.219079-2.774835 0.552809-5.139635 1.676012-7.100643 3.265595-0.67669 0.552121-1.685826 0.435242-2.237946-0.241448-0.363436-0.489681-0.441256-1.090457-0.212444-1.626129 1.421753-3.269166 2.409563-6.637546 2.626644-9.803077 0.177792-2.255003-0.045693-4.412845-0.753454-6.291086-2.330079 0.484356-4.333119 1.721545-6.00143 3.491894-2.145503 2.34181-3.766754 5.591635-4.781594 9.379187-0.230258 0.859361-1.097917 1.360313-1.957277 1.130055-0.477423-0.127921-0.851671-0.449933-1.044316-0.876795-1.719031-3.769578-3.786496-7.257271-6.2161-9.648033-1.587908-1.585314-3.364271-2.658255-5.238174-2.921558-1.148855 2.250664-1.546323 4.497976-1.311187 6.675996 0.301306 2.758618 1.562025 5.501396 3.515883 8.139932 0.531942 0.68834 0.383235 1.688947-0.305105 2.22089-0.530038 0.386736-1.197591 0.395493-1.736386 0.114675-3.273125-1.661607-6.434318-2.849751-9.465684-3.440242-2.397925-0.471937-4.72199-0.582951-6.937245-0.272508 1.870563 6.641574 5.48908 10.57897 10.210083 12.884371 0.095485 0.025585 0.202619 0.071347 0.289576 0.128759zm35.011665 4.34936c-4.985901 1.802487-10.702633 2.385758-16.330354 2.19122-5.156542-0.17063-10.077191-0.585073-14.518363-1.706818-7.123037-1.106893-13.726619-1.73347-20.215216 2.6854-5.987266 4.075613-8.018851 10.575642-7.834114 17.652457 0.260353 10.423112 5.184675 22.027666 9.70322 29.481082 3.741113 6.153488 8.478035 12.027984 14.161884 17.678614 5.373256 5.345675 11.589425 10.47373 18.556145 15.410585 6.653752-4.971599 12.331034-9.863703 17.12421-14.702733 5.049247-5.094493 9.153853-10.100962 12.426358-15.05748 4.00181-6.023295 8.827261-16.584693 10.724142-26.719756 1.343624-7.179003 1.191553-14.059443-1.803119-18.733685-0.701287-1.074846-1.500343-2.039436-2.428996-2.902297-0.97213-0.891568-2.05368-1.693057-3.296654-2.401345-6.107738-3.495682-11.08184-3.583315-16.269143-2.875244z" style="fill:rgb(18.039216%,20.392157%,25.098041%);stroke-width:2.7915;stroke:rgb(18.039216%,20.392157%,25.098041%)"/>
 </g>
</svg>

<svg xmlns="http://www.w3.org/2000/svg" xmlns:xlink="http://www.w3.org/1999/xlink" width="22" height="22" viewBox="0 0 22 22" version="1.1">
<g id="surface1">
<path style="fill-rule:nonzero;fill:rgb(18.039216%,20.392157%,25.098041%);fill-opacity:1;stroke-width:2.7915;stroke-linecap:butt;stroke-linejoin:miter;stroke:rgb(18.039216%,20.392157%,25.098041%);stroke-opacity:1;stroke-miterlimit:4;" d="M 9.688274 34.397288 C 13.840169 31.569677 17.875414 30.450583 21.931904 30.207069 C 18.305926 27.18873 15.601668 22.831094 14.160481 16.560416 C 14.137181 16.52006 14.125531 16.499882 14.134059 16.468054 C 13.936617 15.613491 14.470384 14.767226 15.324947 14.569784 C 18.474639 13.827452 21.783701 13.827142 25.185356 14.499791 C 27.045324 14.878757 28.937958 15.454097 30.860136 16.173806 C 30.089557 14.466356 29.599187 12.731646 29.409205 10.958026 C 29.094574 7.803537 29.727705 4.613029 31.626881 1.471785 C 31.922471 1.005175 32.415274 0.693745 32.998994 0.679582 C 36.120209 0.680109 38.924439 2.181967 41.365694 4.592908 C 43.304549 6.459878 45.009187 8.946355 46.49811 11.664995 C 47.598689 8.957924 49.053339 6.584516 50.807768 4.683733 C 53.220993 2.106638 56.230655 0.422786 59.818251 0.0195222 C 60.499739 -0.104898 61.197674 0.21856 61.53012 0.88756 C 62.871551 3.583738 63.307252 6.668327 63.061465 9.877337 C 62.906135 11.984848 62.473717 14.171626 61.789796 16.342186 C 63.151096 15.717651 64.593946 15.234363 66.141647 14.932679 C 69.173392 14.312253 72.615173 14.262221 76.473234 14.886595 L 76.53689 14.903651 C 77.401657 15.050074 78.0035 15.859483 77.877255 16.7126 C 76.99666 22.736423 74.473029 27.126047 70.891758 30.243005 C 74.182318 30.630039 77.617476 31.686911 81.531962 33.94678 C 83.024156 34.807127 84.378225 35.801032 85.570869 36.888136 C 86.786813 38.015597 87.852982 39.256437 88.71737 40.613777 C 92.390029 46.322509 92.648018 54.271781 91.132386 62.411035 C 89.125479 73.147712 83.993625 84.343388 79.793994 90.723037 C 76.34613 95.888418 72.097993 101.112278 66.821381 106.418756 C 61.564946 111.713585 55.340571 117.05608 47.951878 122.47891 C 47.211532 123.013975 46.20864 123.001108 45.489689 122.501453 C 37.84209 117.177483 31.014103 111.595535 25.12992 105.737717 C 19.213909 99.871371 14.250229 93.697326 10.334365 87.241166 C 5.54787 79.323653 0.293386 66.914259 0.0149092 55.667574 C -0.198993 47.235474 2.326612 39.400946 9.688274 34.397288 Z M 15.08638 56.328631 C 17.083555 53.776512 17.79329 52.20985 17.792831 50.811086 C 17.792372 49.412323 16.797549 47.968864 15.075097 47.967877 C 13.352646 47.96689 12.549711 49.372127 12.55017 50.770891 C 12.550629 52.169655 13.119197 53.294223 15.08638 56.328631 Z M 54.256415 105.95171 C 56.26524 103.419769 56.963325 101.832929 56.962866 100.434165 C 56.962407 99.035402 55.987762 97.580293 54.265311 97.579306 C 52.522681 97.589969 51.719746 98.995206 51.720205 100.39397 C 51.720664 101.792734 52.321061 102.92583 54.256415 105.95171 Z M 39.013315 105.039988 C 41.02214 102.508047 41.720225 100.921207 41.719766 99.522443 C 41.719307 98.123679 40.736134 96.700399 39.013683 96.699412 C 37.291231 96.698425 36.488296 98.103662 36.488755 99.502426 C 36.509392 100.889539 37.077961 102.014108 39.013315 105.039988 Z M 31.240825 90.506107 C 33.24965 87.974166 33.947735 86.387325 33.947276 84.988562 C 33.946816 83.589798 32.983822 82.154867 31.26137 82.15388 C 29.507091 82.144365 28.724333 83.537952 28.724793 84.936716 C 28.736902 86.355658 29.30547 87.480227 31.240825 90.506107 Z M 62.149469 90.498289 C 64.158293 87.966349 64.856378 86.379508 64.855919 84.980744 C 64.85546 83.581981 63.872287 82.1587 62.170014 82.146063 C 60.427384 82.156726 59.624449 83.561963 59.624908 84.960727 C 59.645545 86.347841 60.214114 87.472409 62.149469 90.498289 Z M 46.476155 89.027824 C 48.484979 86.495883 49.183064 84.909042 49.182605 83.510279 C 49.182146 82.111515 48.198973 80.688234 46.476522 80.687247 C 44.75407 80.68626 43.951135 82.091498 43.951594 83.490261 C 43.952053 84.889025 44.520622 86.013594 46.476155 89.027824 Z M 70.675963 75.163423 C 72.684788 72.631483 73.382873 71.044642 73.382414 69.645879 C 73.381954 68.247115 72.398782 66.823834 70.67633 66.822847 C 68.942229 66.801682 68.139293 68.206919 68.139753 69.605683 C 68.140212 71.004447 68.740608 72.137544 70.675963 75.163423 Z M 56.024273 74.017862 C 58.012919 71.497571 58.722654 69.930909 58.722195 68.532145 C 58.710086 67.113204 57.747091 65.678273 56.02464 65.677286 C 54.302188 65.676299 53.499253 67.081536 53.499712 68.4803 C 53.500171 69.879064 54.06874 71.003632 56.024273 74.017862 Z M 38.539726 74.023602 C 40.528372 71.503311 41.226457 69.91647 41.225998 68.517707 C 41.225539 67.118943 40.262544 65.684012 38.540093 65.683025 C 36.797463 65.693688 36.003056 67.067098 36.003515 68.465861 C 36.003974 69.864625 36.584193 71.009372 38.539726 74.023602 Z M 23.289165 74.030936 C 25.29799 71.498996 25.996075 69.912155 25.995615 68.513391 C 25.995156 67.114628 25.032162 65.679697 23.30971 65.67871 C 21.567081 65.689373 20.784323 67.08296 20.764604 68.493374 C 20.765064 69.892138 21.35381 71.005056 23.289165 74.030936 Z M 77.415202 56.313605 C 79.424027 53.781664 80.133762 52.215002 80.121652 50.79606 C 80.121193 49.397296 79.138021 47.974016 77.415569 47.973029 C 75.693118 47.972042 74.890182 49.377279 74.890641 50.776043 C 74.891101 52.174807 75.459669 53.299375 77.415202 56.313605 Z M 62.080807 56.315534 C 64.089632 53.783593 64.767538 52.208403 64.767079 50.809639 C 64.786798 49.399225 63.803626 47.975945 62.081174 47.974957 C 60.358723 47.97397 59.555787 49.379208 59.556246 50.777972 C 59.556706 52.176735 60.125274 53.301304 62.080807 56.315534 Z M 47.257947 56.318071 C 49.266771 53.78613 49.976506 52.219468 49.964397 50.800526 C 49.963938 49.401762 49.000944 47.966832 47.278492 47.965844 C 45.55604 47.964857 44.753105 49.370095 44.733386 50.780509 C 44.754023 52.167622 45.322592 53.292191 47.257947 56.318071 Z M 30.065259 56.316728 C 32.074084 53.784787 32.772169 52.197947 32.77171 50.799183 C 32.771251 49.40042 31.788078 47.977139 30.065627 47.976152 C 28.343175 47.975165 27.54024 49.380402 27.540699 50.779166 C 27.541158 52.17793 28.109726 53.302498 30.065259 56.316728 Z M 28.143345 30.387443 C 30.317634 30.611836 32.529997 30.948769 34.774187 31.29423 C 38.716082 31.92401 42.805469 32.576252 47.082472 32.528275 C 51.151451 32.492785 54.873442 32.415493 58.280881 31.793391 C 60.781751 31.371855 63.112438 30.375965 65.513256 30.200525 C 65.856284 30.002474 66.199312 29.804423 66.550868 29.574544 C 70.380751 27.121181 73.277183 23.377256 74.449029 17.857886 C 71.589291 17.51806 69.058039 17.607381 66.800144 18.076965 C 64.025309 18.629774 61.660509 19.752977 59.699501 21.34256 C 59.022811 21.894681 58.013675 21.777802 57.461555 21.101112 C 57.098119 20.611431 57.020299 20.010655 57.249111 19.474983 C 58.670864 16.205817 59.658674 12.837437 59.875755 9.671906 C 60.053547 7.416903 59.830062 5.259061 59.122301 3.38082 C 56.792222 3.865176 54.789182 5.102365 53.120871 6.872714 C 50.975368 9.214524 49.354117 12.464349 48.339277 16.251901 C 48.109019 17.111262 47.24136 17.612214 46.382 17.381956 C 45.904577 17.254035 45.530329 16.932023 45.337684 16.505161 C 43.618653 12.735583 41.551188 9.24789 39.121584 6.857128 C 37.533676 5.271814 35.757313 4.198873 33.88341 3.93557 C 32.734555 6.186234 32.337087 8.433546 32.572223 10.611566 C 32.873529 13.370184 34.134248 16.112962 36.088106 18.751498 C 36.620048 19.439838 36.471341 20.440445 35.783001 20.972388 C 35.252963 21.359124 34.58541 21.367881 34.046615 21.087063 C 30.77349 19.425456 27.612297 18.237312 24.580931 17.646821 C 22.183006 17.174884 19.858941 17.06387 17.643686 17.374313 C 19.514249 24.015887 23.132766 27.953283 27.853769 30.258684 C 27.949254 30.284269 28.056388 30.330031 28.143345 30.387443 Z M 63.15501 34.736803 C 58.169109 36.53929 52.452377 37.122561 46.824656 36.928023 C 41.668114 36.757393 36.747465 36.34295 32.306293 35.221205 C 25.183256 34.114312 18.579674 33.487735 12.091077 37.906605 C 6.103811 41.982218 4.072226 48.482247 4.256963 55.559062 C 4.517316 65.982174 9.441638 77.586728 13.960183 85.040144 C 17.701296 91.193632 22.438218 97.068128 28.122067 102.718758 C 33.495323 108.064433 39.711492 113.192488 46.678212 118.129343 C 53.331964 113.157744 59.009246 108.26564 63.802422 103.42661 C 68.851669 98.332117 72.956275 93.325648 76.22878 88.36913 C 80.23059 82.345835 85.056041 71.784437 86.952922 61.649374 C 88.296546 54.470371 88.144475 47.589931 85.149803 42.915689 C 84.448516 41.840843 83.64946 40.876253 82.720807 40.013392 C 81.748677 39.121824 80.667127 38.320335 79.424153 37.612047 C 73.316415 34.116365 68.342313 34.028732 63.15501 34.736803 Z M 63.15501 34.736803 " transform="matrix(0.14519,0.083827,-0.083827,0.14519,8.926,-1.318)"/>
</g>
</svg>
